X:1
T:Title
%%score { 1 | ( 2 3 ) }
L:1/8
M:9/8
K:F
V:1 treble nm="Grand Piano"
V:2 bass 
V:3 bass 
V:1
 z3 z2[Q:1/4=100] A AGF | A3 A2 [Ac] [Fc][EB][FA] | [EG]3- [EG]2 [GB] [GB][FA][EG] | %3
 [GB]3 [GB]2 [Ed] [Ed][Fc]B | A3- A2 C CDE |[M:3/4] F3 .A3 |[M:3/8] FGA |[M:9/8] [DB]3 .d3 GAB | %8
 c3 A2 [CF] [B,EG][A,F][G,CE] |[M:3/4] [A,CF]6 |[M:2/4] [CAc][FAc] [CGB][CFA] | %11
[M:9/8] [FAc]3 [CFA]2 [A,F] [CF][CEG][CFA] | [CEG]3 [CEc]3 [A,F][A,CF][A,CF] | %13
 [CFA]3 [DFA]2 [DFA] [=B,FA][B,FG][B,DF] | [CEG]3- [CEG]2 C CDE |[M:3/4] F3 .A3 |[M:3/8] FGA | %17
[M:9/8] [DB]3 .d3 GAB | c3 A2 [CF] [B,EG][A,F][G,CE] |[M:7/4] [A,CF]6 z2 z2 z4 |] %20
V:2
 z3 z2 [F,CF] [F,CF][F,B,E][F,A,] | [F,CF]3 [F,CF]2 F, [C,A,][C,G,][C,F,] | %2
 [C,C]3- [C,C]2 [C,C] [C,C][C,C][C,C] | [C,C]3 [C,C]2 [C,B,] [C,B,][D,A,][E,G,C] | %4
 [F,C]3- [F,C]2 [F,A,] [F,A,][F,A,C][G,B,C] |[M:3/4] [A,C]3 .[F,CF]3 |[M:3/8] [A,C][G,CE][F,C_E] | %7
[M:9/8] z3[K:treble] .F3 [B,CE][A,CF][G,CE] | [A,CF]3[K:bass] [F,CF]2 A,, C,C,C, |[M:3/4] F,6 | %10
[M:2/4] F,F, F,F, |[M:9/8] F,3 F,2 F, A,G,F, | C,3 C,3 F,F,F, | F,3 D,2 D, G,G,G,, | %14
 C,3- C,2 [F,A,] [F,A,][F,A,C][G,B,C] |[M:3/4] [A,C]3 .[F,CF]3 |[M:3/8] [A,C][G,CE][F,C_E] | %17
[M:9/8] z3[K:treble] .F3 [B,CE][A,CF][G,CE] | [A,CF]3[K:bass] [F,CF]2 A,, C,C,C, | %19
[M:7/4] F,6 z2 z2 z4 |] %20
V:3
 x9 | x9 | x9 | x9 | x9 |[M:3/4] x6 |[M:3/8] x3 |[M:9/8] [B,,B,]6[K:treble] z3 | x3[K:bass] x6 | %9
[M:3/4] x6 |[M:2/4] x4 |[M:9/8] x9 | x9 | x9 | x9 |[M:3/4] x6 |[M:3/8] x3 | %17
[M:9/8] [B,,B,]6[K:treble] z3 | x3[K:bass] x6 |[M:7/4] x14 |] %20

